Papirus/64x64/apps/com.github.chasinglogic.tardis.svg

<svg xmlns="http://www.w3.org/2000/svg" width="64" height="64" version="1">
 <path style="opacity:0.2" d="m 31.997501,5.0000018 c -0.363016,0 -0.724251,0.061655 -1.071272,0.1863437 L 10.149951,12.640092 c -1.2807936,0.459575 -2.1499508,1.711154 -2.1499508,3.093306 0,7.994706 2.0395788,16.991619 5.6081388,24.982473 2.896156,6.486122 8.083067,15.290342 16.915746,19.918895 0.460804,0.241264 0.97012,0.365233 1.476085,0.365234 0.505967,0 1.012813,-0.12397 1.473618,-0.365234 a 2.5143455,2.5581474 0 0 0 0.0025,0 C 42.308171,56.00534 47.495225,47.200991 50.391863,40.715871 53.960245,32.724478 56,23.727018 56,15.733398 56,14.351246 55.128375,13.099667 53.847581,12.640092 a 2.5143455,2.5581474 0 0 0 -0.0099,-0.0025 L 33.07132,5.1863495 C 32.724298,5.0616602 32.360596,5.0000057 31.997578,5.0000057 Z"/>
 <path style="fill:#2f6cc5" d="m 31.997501,4.0000008 c -0.363016,0 -0.724251,0.061655 -1.071272,0.1863437 L 10.149951,11.640091 c -1.2807936,0.459575 -2.1499508,1.711154 -2.1499508,3.093306 0,7.994706 2.0395788,16.991619 5.6081388,24.982473 2.896156,6.486122 8.083067,15.290342 16.915746,19.918895 0.460804,0.241264 0.97012,0.365233 1.476085,0.365234 0.505967,0 1.012813,-0.12397 1.473618,-0.365234 a 2.5143455,2.5581474 0 0 0 0.0025,0 C 42.308171,55.005339 47.495225,46.20099 50.391863,39.71587 53.960245,31.724477 56,22.727017 56,14.733397 56,13.351245 55.128375,12.099666 53.847581,11.640091 a 2.5143455,2.5581474 0 0 0 -0.0099,-0.0025 L 33.07132,4.1863485 C 32.724298,4.0616592 32.360596,4.0000047 31.997578,4.0000047 Z"/>
 <path style="opacity:0.2" d="m 32,17.000001 c -7.179581,0 -13,5.820422 -13,13 v 13 h 13 c 7.179251,0 13,-5.820424 13,-13 0,-7.179578 -5.820749,-13 -13,-13 z m 0,7 c 3.313798,0 6,2.6862 6,6 0,3.313801 -2.686202,6 -6,6 -3.313802,0 -6,-2.686199 -6,-6 0,-3.3138 2.686198,-6 6,-6 z"/>
 <path style="fill:#ffffff" d="M 32 16 C 24.820419 16 19 21.820422 19 29 L 19 42 L 32 42 C 39.179251 42 45 36.179576 45 29 C 45 21.820422 39.179251 16 32 16 z M 32 23 C 35.313798 23 38 25.6862 38 29 C 38 32.313801 35.313798 35 32 35 C 28.686198 35 26 32.313801 26 29 C 26 25.6862 28.686198 23 32 23 z"/>
 <path style="opacity:0.1" d="m 21.045644,43.314312 5.821162,-7.388514 c 0.08311,-0.09885 0.133186,-0.225664 0.133186,-0.364049 0,-0.310048 -0.251717,-0.561748 -0.562472,-0.561748 -0.138374,0 -0.265413,0.04918 -0.363644,0.133095 l -7.388144,5.821898 a 1.6387663,1.673181 0 0 0 -0.685731,1.357351 c 0,0.933026 0.755628,1.687644 1.687881,1.687644 a 1.6954383,1.7310432 0 0 0 1.357768,-0.685667 z"/>
 <path style="fill:#474747" d="m 21.045644,42.314311 5.821162,-7.388514 c 0.08311,-0.09885 0.133186,-0.225664 0.133186,-0.364049 C 26.999992,34.2517 26.748275,34 26.43752,34 c -0.138374,0 -0.265413,0.04918 -0.363644,0.133095 l -7.388144,5.821898 a 1.6387663,1.673181 0 0 0 -0.685731,1.357351 c 0,0.933026 0.755628,1.687644 1.687881,1.687644 a 1.6954383,1.7310432 0 0 0 1.357768,-0.685667 z"/>
 <path style="opacity:0.2;fill:#ffffff" d="M 31.998047 4 C 31.635031 4 31.272802 4.0608582 30.925781 4.1855469 L 10.150391 11.640625 C 8.869597 12.1002 8 13.35027 8 14.732422 C 8 14.966537 8.0179992 15.209529 8.0214844 15.445312 C 8.1331279 14.180589 8.9597555 13.067849 10.150391 12.640625 L 30.925781 5.1855469 C 31.272802 5.0608582 31.635031 5 31.998047 5 C 32.361065 5 32.725244 5.0608576 33.072266 5.1855469 L 53.837891 12.636719 A 2.5143455 2.5581474 0 0 1 53.847656 12.640625 C 55.038292 13.067849 55.866572 14.180589 55.978516 15.445312 C 55.982006 15.209406 56 14.966655 56 14.732422 C 56 13.35027 55.12845 12.1002 53.847656 11.640625 A 2.5143455 2.5581474 0 0 0 53.837891 11.636719 L 33.072266 4.1855469 C 32.725244 4.0608576 32.361065 4 31.998047 4 z"/>
</svg>

<?xml version="1.0" encoding="UTF-8" standalone="no"?>
<svg
   id="_图层_1"
   version="1.1"
   viewBox="0 0 64 64" width="64" height="64"
   sodipodi:docname="com.github.chasinglogic.tardis.svg"
   xml:space="preserve"
   inkscape:version="1.4 (e7c3feb100, 2024-10-09)"
   xmlns:inkscape="http://www.inkscape.org/namespaces/inkscape"
   xmlns:sodipodi="http://sodipodi.sourceforge.net/DTD/sodipodi-0.dtd"
   xmlns="http://www.w3.org/2000/svg"
   xmlns:svg="http://www.w3.org/2000/svg"><sodipodi:namedview
     id="namedview26"
     pagecolor="#505050"
     bordercolor="#eeeeee"
     borderopacity="1"
     inkscape:showpageshadow="0"
     inkscape:pageopacity="0"
     inkscape:pagecheckerboard="0"
     inkscape:deskcolor="#505050"
     inkscape:zoom="8.453125"
     inkscape:cx="31.94085"
     inkscape:cy="33.833641"
     inkscape:window-width="1920"
     inkscape:window-height="939"
     inkscape:window-x="0"
     inkscape:window-y="34"
     inkscape:window-maximized="1"
     inkscape:current-layer="_图层_1" /><!-- Generator: Adobe Illustrator 29.0.1, SVG Export Plug-In . SVG Version: 2.1.0 Build 192)  --><defs
     id="defs6"><style
       id="style1">
      .st0 {
        fill-opacity: .5;
      }

      .st0, .st1, .st2, .st3, .st4, .st5, .st6, .st7 {
        fill: #fff;
      }

      .st8 {
        fill: #133c9a;
      }

      .st2, .st9 {
        display: none;
      }

      .st3 {
        fill-opacity: .2;
      }

      .st4 {
        fill-opacity: .9;
      }

      .st10 {
        fill: #3370ff;
      }

      .st11 {
        fill: url(#_未命名的渐变_3);
      }

      .st12 {
        fill: url(#_未命名的渐变);
      }

      .st5 {
        fill-opacity: .3;
      }

      .st6 {
        fill-opacity: 0;
      }

      .st7 {
        fill-opacity: .7;
      }

      .st13 {
        fill: #00d6b9;
      }

      .st14 {
        fill: url(#_未命名的渐变_2);
      }
    </style><radialGradient
       id="_未命名的渐变"
       data-name="未命名的渐变"
       cx="123.9"
       cy="-40.2"
       fx="123.9"
       fy="-40.2"
       r="59.4"
       gradientTransform="translate(-26.8 25.5) scale(.6 -.7)"
       gradientUnits="userSpaceOnUse"><stop
         offset="0"
         stop-color="#db202e"
         id="stop1" /><stop
         offset="1"
         stop-color="#e01b24"
         id="stop2" /></radialGradient><radialGradient
       id="_未命名的渐变_2"
       data-name="未命名的渐变 2"
       cx="67.6"
       cy="26.8"
       fx="67.6"
       fy="26.8"
       r="105.2"
       gradientTransform="translate(-26.6 25.3) scale(.6 -.7)"
       gradientUnits="userSpaceOnUse"><stop
         offset="0"
         stop-color="#ffb648"
         id="stop3" /><stop
         offset="1"
         stop-color="#ff7800"
         stop-opacity="0"
         id="stop4" /></radialGradient><radialGradient
       id="_未命名的渐变_3"
       data-name="未命名的渐变 3"
       cx="61.7"
       cy="18.6"
       fx="61.7"
       fy="18.6"
       r="68"
       gradientTransform="translate(-26.8 25.8) scale(.6 -.7)"
       gradientUnits="userSpaceOnUse"><stop
         offset="0"
         stop-color="#c64600"
         id="stop5" /><stop
         offset="1"
         stop-color="#a51d2d"
         id="stop6" /></radialGradient></defs><path
     class="st1"
     d="M47.5,64.1H13.8c-7.6,0-13.8-6.3-13.8-13.8V13.7C0,6.2,6.2,0,13.7,0h36.6c7.5,0,13.7,6.2,13.7,13.7v36.6c0,7.5-6.2,13.7-13.7,13.7h-2.9.1Z"
     id="path6"
     style="fill:#f9f9f9;fill-opacity:1" /><g
     id="g57"
     transform="matrix(0.91127542,0,0,0.92528456,2.9574861,3.3367545)"><path
       style="opacity:0.2"
       d="m 31.997501,5.0000018 c -0.363016,0 -0.724251,0.061655 -1.071272,0.1863437 L 10.149951,12.640092 c -1.2807936,0.459575 -2.1499508,1.711154 -2.1499508,3.093306 0,7.994706 2.0395788,16.991619 5.6081388,24.982473 2.896156,6.486122 8.083067,15.290342 16.915746,19.918895 0.460804,0.241264 0.97012,0.365233 1.476085,0.365234 0.505967,0 1.012813,-0.12397 1.473618,-0.365234 a 2.5143455,2.5581474 0 0 0 0.0025,0 C 42.308171,56.00534 47.495225,47.200991 50.391863,40.715871 53.960245,32.724478 56,23.727018 56,15.733398 56,14.351246 55.128375,13.099667 53.847581,12.640092 a 2.5143455,2.5581474 0 0 0 -0.0099,-0.0025 L 33.07132,5.1863495 C 32.724298,5.0616602 32.360596,5.0000057 31.997578,5.0000057 Z"
       id="path1" /><path
       style="fill:#2f6cc5"
       d="m 31.997501,4.0000008 c -0.363016,0 -0.724251,0.061655 -1.071272,0.1863437 L 10.149951,11.640091 c -1.2807936,0.459575 -2.1499508,1.711154 -2.1499508,3.093306 0,7.994706 2.0395788,16.991619 5.6081388,24.982473 2.896156,6.486122 8.083067,15.290342 16.915746,19.918895 0.460804,0.241264 0.97012,0.365233 1.476085,0.365234 0.505967,0 1.012813,-0.12397 1.473618,-0.365234 a 2.5143455,2.5581474 0 0 0 0.0025,0 C 42.308171,55.005339 47.495225,46.20099 50.391863,39.71587 53.960245,31.724477 56,22.727017 56,14.733397 56,13.351245 55.128375,12.099666 53.847581,11.640091 a 2.5143455,2.5581474 0 0 0 -0.0099,-0.0025 L 33.07132,4.1863485 C 32.724298,4.0616592 32.360596,4.0000047 31.997578,4.0000047 Z"
       id="path2-7" /><path
       style="opacity:0.2"
       d="m 32,17.000001 c -7.179581,0 -13,5.820422 -13,13 v 13 h 13 c 7.179251,0 13,-5.820424 13,-13 0,-7.179578 -5.820749,-13 -13,-13 z m 0,7 c 3.313798,0 6,2.6862 6,6 0,3.313801 -2.686202,6 -6,6 -3.313802,0 -6,-2.686199 -6,-6 0,-3.3138 2.686198,-6 6,-6 z"
       id="path3" /><path
       style="fill:#ffffff"
       d="M 32,16 C 24.820419,16 19,21.820422 19,29 V 42 H 32 C 39.179251,42 45,36.179576 45,29 45,21.820422 39.179251,16 32,16 Z m 0,7 c 3.313798,0 6,2.6862 6,6 0,3.313801 -2.686202,6 -6,6 -3.313802,0 -6,-2.686199 -6,-6 0,-3.3138 2.686198,-6 6,-6 z"
       id="path4" /><path
       style="opacity:0.1"
       d="m 21.045644,43.314312 5.821162,-7.388514 c 0.08311,-0.09885 0.133186,-0.225664 0.133186,-0.364049 0,-0.310048 -0.251717,-0.561748 -0.562472,-0.561748 -0.138374,0 -0.265413,0.04918 -0.363644,0.133095 l -7.388144,5.821898 a 1.6387663,1.673181 0 0 0 -0.685731,1.357351 c 0,0.933026 0.755628,1.687644 1.687881,1.687644 a 1.6954383,1.7310432 0 0 0 1.357768,-0.685667 z"
       id="path5" /><path
       style="fill:#474747"
       d="m 21.045644,42.314311 5.821162,-7.388514 c 0.08311,-0.09885 0.133186,-0.225664 0.133186,-0.364049 C 26.999992,34.2517 26.748275,34 26.43752,34 c -0.138374,0 -0.265413,0.04918 -0.363644,0.133095 l -7.388144,5.821898 a 1.6387663,1.673181 0 0 0 -0.685731,1.357351 c 0,0.933026 0.755628,1.687644 1.687881,1.687644 a 1.6954383,1.7310432 0 0 0 1.357768,-0.685667 z"
       id="path6-8" /><path
       style="opacity:0.2;fill:#ffffff"
       d="M 31.998047,4 C 31.635031,4 31.272802,4.060858 30.925781,4.1855469 L 10.150391,11.640625 C 8.869597,12.1002 8,13.35027 8,14.732422 c 0,0.234115 0.017999,0.477107 0.021484,0.71289 0.1116435,-1.264723 0.9382711,-2.377463 2.128907,-2.804687 L 30.925781,5.1855469 C 31.272802,5.0608582 31.635031,5 31.998047,5 c 0.363018,0 0.727197,0.060858 1.074219,0.1855469 l 20.765625,7.4511721 a 2.5143455,2.5581474 0 0 1 0.0098,0.0039 c 1.190636,0.427224 2.018916,1.539964 2.13086,2.804687 C 55.982006,15.209406 56,14.966655 56,14.732422 56,13.35027 55.12845,12.1002 53.847656,11.640625 a 2.5143455,2.5581474 0 0 0 -0.0098,-0.0039 L 33.072266,4.1855469 C 32.725244,4.0608576 32.361065,4 31.998047,4 Z"
       id="path7" /></g></svg>
